svg/RightHanded/crosshair.svg

<?xml version="1.0" encoding="UTF-8" standalone="no"?>
<!-- Created with Inkscape (http://www.inkscape.org/) -->

<svg
   xmlns:dc="http://purl.org/dc/elements/1.1/"
   xmlns:cc="http://creativecommons.org/ns#"
   xmlns:rdf="http://www.w3.org/1999/02/22-rdf-syntax-ns#"
   xmlns:svg="http://www.w3.org/2000/svg"
   xmlns="http://www.w3.org/2000/svg"
   xmlns:xlink="http://www.w3.org/1999/xlink"
   version="1.0"
   width="500"
   height="500"
   viewBox="0 0 1000 1000"
   id="page"
   xml:space="preserve"><metadata
     id="metadata19"><rdf:RDF><cc:Work
         rdf:about=""><dc:format>image/svg+xml</dc:format><dc:type
           rdf:resource="http://purl.org/dc/dcmitype/StillImage" /><dc:title></dc:title></cc:Work></rdf:RDF></metadata><defs
     id="defs38"><linearGradient
       id="linearGradient2312"><stop
         id="stop2314"
         style="stop-color:#999999;stop-opacity:1"
         offset="0" /><stop
         id="stop2316"
         style="stop-color:#555555;stop-opacity:1"
         offset="1" /></linearGradient><linearGradient
       x1="10"
       y1="588"
       x2="156"
       y2="588"
       id="linearGradient4049"
       xlink:href="#linearGradient2312"
       gradientUnits="userSpaceOnUse"
       gradientTransform="matrix(0,1,-1,0,799,322.785)" /><linearGradient
       x1="10"
       y1="156"
       x2="156"
       y2="156"
       id="linearGradient4052"
       xlink:href="#linearGradient2312"
       gradientUnits="userSpaceOnUse"
       gradientTransform="matrix(0,1,-1,0,799,322.785)" /><linearGradient
       x1="10"
       y1="442"
       x2="10"
       y2="588"
       id="linearGradient4055"
       xlink:href="#linearGradient2312"
       gradientUnits="userSpaceOnUse"
       gradientTransform="translate(417,106.785)" /><linearGradient
       x1="10"
       y1="10"
       x2="10"
       y2="156"
       id="linearGradient4058"
       xlink:href="#linearGradient2312"
       gradientUnits="userSpaceOnUse"
       gradientTransform="translate(417,106.785)" /><filter
       x="-1.0628572"
       y="-1.0628572"
       width="3.1257143"
       height="3.1257143"
       color-interpolation-filters="sRGB"
       id="filter4186"><feGaussianBlur
         id="feGaussianBlur4188"
         stdDeviation="66.959998" /></filter><filter
       x="-1.0628572"
       y="-1.0628573"
       width="3.1257143"
       height="3.1257148"
       color-interpolation-filters="sRGB"
       id="filter4190"><feGaussianBlur
         id="feGaussianBlur4192"
         stdDeviation="66.959998" /></filter><filter
       x="-1.0628572"
       y="-1.0628572"
       width="3.1257143"
       height="3.1257143"
       color-interpolation-filters="sRGB"
       id="filter4194"><feGaussianBlur
         id="feGaussianBlur4196"
         stdDeviation="66.959998" /></filter><filter
       x="-1.0628572"
       y="-1.0628572"
       width="3.1257143"
       height="3.1257143"
       color-interpolation-filters="sRGB"
       id="filter4198"><feGaussianBlur
         id="feGaussianBlur4200"
         stdDeviation="66.959998" /></filter></defs><path
     d="m 575.6,309.785 c 0,41.7516 -33.8472,75.6 -75.6,75.6 -41.7528,0 -75.6,-33.8472 -75.6,-75.6 0,-41.7528 33.8472,-75.6 75.6,-75.6 41.7528,0 75.6,33.8484 75.6,75.6 z"
     id="path1398-9"
     style="opacity:0.15;fill:#111111;fill-opacity:1;stroke:none;filter:url(#filter4186)" /><path
     d="m 716,601.385 c -41.7516,0 -75.6,-33.8472 -75.6,-75.6 0,-41.7528 33.8472,-75.6 75.6,-75.6 41.7528,0 75.6,33.8472 75.6,75.6 0,41.7528 -33.8484,75.6 -75.6,75.6 z"
     id="path2415-6"
     style="opacity:0.15;fill:#111111;fill-opacity:1;stroke:none;filter:url(#filter4194)" /><path
     d="m 284,601.385 c -41.7516,0 -75.6,-33.8484 -75.6,-75.6 0,-41.7528 33.8484,-75.6 75.6,-75.6 41.7528,0 75.6,33.8472 75.6,75.6 0,41.7516 -33.8472,75.6 -75.6,75.6 z"
     id="path2421-6"
     style="opacity:0.15;fill:#111111;fill-opacity:1;stroke:none;filter:url(#filter4198)" /><path
     d="m 575.6,741.78498 c 0,41.75161 -33.8484,75.6 -75.6,75.6 -41.7528,0 -75.6,-33.8484 -75.6,-75.6 0,-41.75277 33.8472,-75.59996 75.6,-75.59996 41.7516,0 75.6,33.8472 75.6,75.59996 z"
     id="path1404-4"
     style="opacity:0.15;fill:#111111;fill-opacity:1;stroke:none;filter:url(#filter4190)" /><path
     d="m 500.00005,253.98727 0,301.59067"
     id="path1406"
     style="opacity:0.75;fill:none;stroke:#010101;stroke-width:20;stroke-linecap:round;stroke-linejoin:round;stroke-miterlimit:3.13260007;stroke-opacity:1;stroke-dasharray:none" /><path
     d="m 649.79773,405.78505 -301.59067,0"
     id="path2423"
     style="opacity:0.75;fill:none;stroke:#010101;stroke-width:20;stroke-linecap:round;stroke-linejoin:round;stroke-miterlimit:3.13260007;stroke-opacity:1;stroke-dasharray:none" /><path
     d="m 563,189.785 c 0,34.793 -28.206,63 -63,63 -34.794,0 -63,-28.206 -63,-63 0,-34.794 28.206,-63 63,-63 34.794,0 63,28.207 63,63 z"
     id="path1398"
     style="opacity:0.75;fill:url(#linearGradient4058);fill-opacity:1;stroke:#000000;stroke-width:20;stroke-linecap:round;stroke-linejoin:round;stroke-miterlimit:3.13260007" /><path
     d="m 563,621.785 c 0,34.793 -28.207,63 -63,63 -34.794,0 -63,-28.207 -63,-63 0,-34.794 28.206,-63 63,-63 34.793,0 63,28.206 63,63 z"
     id="path1404"
     style="opacity:0.75;fill:url(#linearGradient4055);fill-opacity:1;stroke:#000000;stroke-width:20;stroke-linecap:round;stroke-linejoin:round;stroke-miterlimit:3.13260007" /><path
     d="m 716,468.785 c -34.793,0 -63,-28.206 -63,-63 0,-34.794 28.206,-63 63,-63 34.794,0 63,28.206 63,63 0,34.794 -28.207,63 -63,63 z"
     id="path2415"
     style="opacity:0.75;fill:url(#linearGradient4052);fill-opacity:1;stroke:#000000;stroke-width:20;stroke-linecap:round;stroke-linejoin:round;stroke-miterlimit:3.13260007" /><path
     d="m 284,468.785 c -34.793,0 -63,-28.207 -63,-63 0,-34.794 28.207,-63 63,-63 34.794,0 63,28.206 63,63 0,34.793 -28.206,63 -63,63 z"
     id="path2421"
     style="opacity:0.75;fill:url(#linearGradient4049);fill-opacity:1;stroke:#000000;stroke-width:20;stroke-linecap:round;stroke-linejoin:round;stroke-miterlimit:3.13260007" /></svg>

<?xml version="1.0" encoding="UTF-8" standalone="no"?>
<!-- Created with Inkscape (http://www.inkscape.org/) -->
<svg
   xmlns:svg="http://www.w3.org/2000/svg"
   xmlns="http://www.w3.org/2000/svg"
   xmlns:xlink="http://www.w3.org/1999/xlink"
   version="1.0"
   width="500"
   height="500"
   viewBox="0 0 1000 1000"
   id="page"
   xml:space="preserve"><defs
     id="defs38"><linearGradient
       id="linearGradient2312"><stop
         id="stop2314"
         style="stop-color:#999999;stop-opacity:1"
         offset="0" /><stop
         id="stop2316"
         style="stop-color:#555555;stop-opacity:1"
         offset="1" /></linearGradient><linearGradient
       x1="10"
       y1="588"
       x2="156"
       y2="588"
       id="linearGradient1324"
       xlink:href="#linearGradient2312"
       gradientUnits="userSpaceOnUse"
       gradientTransform="matrix(0,1,-1,0,799,322.785)" /><linearGradient
       x1="10"
       y1="156"
       x2="156"
       y2="156"
       id="linearGradient1327"
       xlink:href="#linearGradient2312"
       gradientUnits="userSpaceOnUse"
       gradientTransform="matrix(0,1,-1,0,799,322.785)" /><linearGradient
       x1="10"
       y1="442"
       x2="10"
       y2="588"
       id="linearGradient1325"
       xlink:href="#linearGradient2312"
       gradientUnits="userSpaceOnUse"
       gradientTransform="translate(417,106.785)" /><linearGradient
       x1="10"
       y1="10"
       x2="10"
       y2="156"
       id="linearGradient1328"
       xlink:href="#linearGradient2312"
       gradientUnits="userSpaceOnUse"
       gradientTransform="translate(417,106.785)" /></defs><path
     d="M 500.00005,253.98727 L 500.00005,555.57794"
     id="path1406"
     style="fill:none;stroke:#010101;stroke-width:20;stroke-linecap:round;stroke-linejoin:round;stroke-miterlimit:3.13260007;stroke-dasharray:none;stroke-opacity:1" /><path
     d="M 649.79773,405.78505 L 348.20706,405.78505"
     id="path2423"
     style="fill:none;stroke:#010101;stroke-width:20;stroke-linecap:round;stroke-linejoin:round;stroke-miterlimit:3.13260007;stroke-dasharray:none;stroke-opacity:1" /><path
     d="M 563,189.785 C 563,224.578 534.794,252.785 500,252.785 C 465.206,252.785 437,224.579 437,189.785 C 437,154.991 465.206,126.785 500,126.785 C 534.794,126.785 563,154.992 563,189.785 z"
     id="path1398"
     style="fill:url(#linearGradient1328);fill-opacity:1;stroke:#000000;stroke-width:20;stroke-linecap:round;stroke-linejoin:round;stroke-miterlimit:3.13260007" /><path
     d="M 563,621.785 C 563,656.578 534.793,684.785 500,684.785 C 465.206,684.785 437,656.578 437,621.785 C 437,586.991 465.206,558.785 500,558.785 C 534.793,558.785 563,586.991 563,621.785 z"
     id="path1404"
     style="fill:url(#linearGradient1325);fill-opacity:1;stroke:#000000;stroke-width:20;stroke-linecap:round;stroke-linejoin:round;stroke-miterlimit:3.13260007" /><path
     d="M 716,468.785 C 681.207,468.785 653,440.579 653,405.785 C 653,370.991 681.206,342.785 716,342.785 C 750.794,342.785 779,370.991 779,405.785 C 779,440.579 750.793,468.785 716,468.785 z"
     id="path2415"
     style="fill:url(#linearGradient1327);fill-opacity:1;stroke:#000000;stroke-width:20;stroke-linecap:round;stroke-linejoin:round;stroke-miterlimit:3.13260007" /><path
     d="M 284,468.785 C 249.207,468.785 221,440.578 221,405.785 C 221,370.991 249.207,342.785 284,342.785 C 318.794,342.785 347,370.991 347,405.785 C 347,440.578 318.794,468.785 284,468.785 z"
     id="path2421"
     style="fill:url(#linearGradient1324);fill-opacity:1;stroke:#000000;stroke-width:20;stroke-linecap:round;stroke-linejoin:round;stroke-miterlimit:3.13260007" /></svg>
